X: 8954
T: Currie Dance
R: jig
M: 6/8
K: Dmajor
D|DEF GFE|F d2 ddc|de>d cBHA|AA>E EEF|{G}G F2 FEB|AGF ED:|
A2|A>EE EFG|{G}FF>F E>FE|EDE F3|A A2 {E}EFG|G F2 E3|EEB AGF|{E}D4||

